X:1
T:Light Of The Seven
T: The Night King (Advanced Piano Solo)
T: Game of Thrones OST Season 8 Episode 3
T: Composed by Ramin Djawadi Piano arrangement by Nicolas Del Gallo Full playthrough and more at https://www.youtube.com/c/NDGmusic If you want to donate, please check out my Patreon ☺ https://www.patreon.com/ndg 
C:Ramin Djawadi
%%score { ( 1 4 ) | ( 2 3 ) }
L:1/8
Q:1/4=50
M:4/4
K:C
V:1 treble nm="Piano" snm="Pno."
V:4 treble 
V:2 bass 
V:3 bass 
V:1
!pp!"^A""^Freely""^Sansa and Tyrion\nhide in the crypt\n""^ ≈ 50" A6 (3Acc | A8 | %2
 [Aa]6 (3[Aa][cc'][cc'] | [Aa]8 | [eae']6 (3Acc | [dad']8 | [cac']6 (3Acc | [EAe]8 | %8
 [eae']6 (3Acc | [dad']8 | [cac']6 (3faa | [^Ge]8 ||[Q:1/4=55]"^A tempo" z8 | z/ cc/- c2 c<=B- B2 | %14
 z4 z/ cc/- c2 | c<A- A6 | z/ AA/- A2 A<F- F2 | z4 z/ FF/- F2 | E8 | %19
 z/ [cc'][cc']/- [cc']2 [cc']<[Bb]- [Bb]2- | [Bb]4 z/ [cc'][cc']/- [cc']2 | [cc']<[Aa]- [Aa]6 | %22
 z/ [Aa][Aa]/- [Aa]2 [Aa]<[Ff]- [Ff]2- | [Ff]4 z/ [Ff][Ff]/- [Ff]2 | [Ff]<[Ee]- [Ee]6 | %25
[M:2/4] z2 [_B,D]2 ||[M:4/4]"^B" [A,E]4"^Theon protects Bran\nin the Godswood\n" (3A,CC A,2 | %27
 A,4 (3A,C"^*""^* Triplets played loosly,\nthink  \n\n \n\n \n\n"C A,2 | A,4 (3A,C"^*"C A,2 | %29
 A,4 (3A,!<(!C"^*"C B,2!<)! |!>(! [A,A]4 (3[A,EA]!>)![Cc]"^*"[Cc] [A,A]2 | %31
 [A,A]4 (3[A,A][Cc]"^*"[Cc] [B,B]2 | [A,A]4 (3[A,A][Cc]"^*"[Cc] [B,B]2 | %33
 !1!!5![^G,A,A]4 (3A,C"^*"C B,2 | A,E/A/ A6 | (3A,CC B,6 | [A,A]E/A/ A6 | (3A,CC B,6 | %38
 A,E/A/ A2 A,E/A/ A2 | [dad']8 | A,D/E/ A2 A,E/A/ A2 | [dad']8 | %42
 (3[Aa]"^*"[cc'][cc'] [Bb][Aa]/[Gg]/ (3[Aa]"^*"[cc'][cc'] [Aa]2 | %43
 (3[Aa]"^*"[cc'][cc'] [Bb][Aa]/[Gg]/ (3[Aa][dd'][dd'] [Aa]2 | %44
 (3[Aa]"^*"[cc'][cc'] [Bb][Aa]/[Gg]/ (3[Aa]"^*"[cc'][cc'] [Aa]2 | %45
 (3[Aa]"^*"[cc'][cc'] [Aa]2 (3A,"^*"CC A,2 | A,4 (3A,CC A,2- | !fermata!A,8 || %48
[M:3/4]"^C" z/"^The Night King enters the \nGodswood, sees Theon and Bran\n" [ff']3/2- [ff'][ff'] [ff']2 | %49
 [ff']<[ee']- [ee']4 | z/ [ff']3/2- [ff'][ff'] [ff']2 | [ff']<[dd']- [dd']4 | %52
 z/ [dd']3/2- [dd'][dd'] [dd']2 | [dd']<[_B_b]- [Bb]4 | z/ [_B_b]3/2- [Bb][Bb] [Bb]2 | %55
[M:4/4] [Aa]8 ||[Q:1/4=60] F4 G4 | [df]4 [eg]4 | F4 G4 | %59
"^\"Theon, you're \na good man\"\n" [=B-df]4 [Beg]4 | %60
 z/ [df][df]/- [df]/[df][df]/- [df]/[df][df]/- [df]/[df][eg]/- | [eg]8 | %62
 z/ [Bdf][Bdf]/- [Bdf]/[Bdf][Bdf]/- [Bdf]/[Bdf][Bdf]/- [Bdf]/[Bdf][Beg]/- | [Beg]8 | %64
 z/ [B_e][Be]/- [Be]/[Be][Be]/- [Be]/[Be][Be]/- [Be]/[Be][Bd]/- | [Bd]8 || %66
[K:Eb][K:bass] C,4 (3C,E,E, C,2 | C,4 (3C,E,"^*"E, C,2 | C,4 (3C,E,E, C,2 | C,4 (3C,E,E, D,2 || %70
[K:treble]"^Theon charges at\nthe Night King\n""^D" C4 (3CEE C2 | C4 (3CEE D2 | %72
 CF/G/ c/G/F/C/ CF/G/ c/G/F/C/ | CF/G/ c/G/F/C/ CF/G/ c/G/F/C/ | CC/E/ DC/B,/ (3CEE C2 | %75
 C>E DC/B,/ (3CFF C2 | [Cc]>[Ee] [Dd][Cc]/[B,B]/ (3[Cc][Ee][Ee] [Cc]2 | %77
 [Cc]>[Ee] [Dd][Cc]/[B,B]/ (3[Cc][Gg][Gg] [Cc]2 |[M:6/4] (3CEE D6 (3D2"^*" E2 E2 |[M:4/4] C8- | %80
 C8 ||!mp!"^E" z/"^Jon tries to evade Viserion" EE/- E>E E<D- D2 | z/ EE/- E>E E<C- C2 | %83
[K:bass] z/ CC/- C>C C<A,- A,2 | z/ A,A,/- A,/A,A,/ G,2 F,E, |[K:treble] z/ EE/- E/EE/ E<C- C2 | %86
 z/ CC/- C/FG/ A<G- G2 | G/A/G- G2 A/B/A- A2 | z/ EE/- E>E E<F- F2 | z/ AA/- A>A A<G- G2 | %90
 z/ GG/- G>G G<E- E2 | z/ EE/- E>E E<^F- F2 | z/ ^FF/- F/FF/ F<G- G2 || %93
"^F"!mf! z/"^Jorah protects Daenerys" [EGe][EGe]/- [EGe]>[EGe] [EGe]<[DGd]- [DGd]2 | %94
 z/ [EGBe][EGBe]/- [EGBe]>[EGBe] [EGBe]<[CF=Ac]- [CFAc]2 | %95
 z/ [CEAc][CEAc]/- [CEAc]>[CEAc] [CEAc]<[B,EGB]- [B,EGB]2 | %96
 z/ [B,EGB][B,EGB]/- [B,EGB]>[B,EGB] [B,EGB]<[=B,DG=B]- [B,DGB]2 | %97
 z/ [Ee][Ee]/- [Ee]>[Ee] [Ee]<[Dd]- [Dd]2 | z/ [Ee][Ee]/- [Ee]>[Ee] [Ee]<[Cc]- [Cc]2 | %99
 z/ [Cc][Cc]/- [Cc]>[Cc] [Cc]<[B,B]- [B,B]2 | %100
 z/ [B,B]/[B,B]/[B,B]/ [B,B]/[B,B]/[B,B]/[B,B]/ [B,B]<[=B,=B]- [B,B]2 || %101
"^G""^The Night King walks towards Bran" z [Ee]/[Ee]/ [Ee]/[Ee]/[Ee]/[Ee]/ [Ee]<[Dd]- [Dd]2!f! | %102
 z/ [Ee]/[Ee]/[Ee]/ [Ee]/[Ee]/[Ee]/[Ee]/ [Ee]<[Cc]- [Cc]2 | %103
 z [Cc]/[Cc]/ [Cc]/[Cc]/[Cc]/[Cc]/ [Cc]<[B,B]- [B,B]2 | %104
 z/ [B,B]/[B,B]/[B,B]/ [B,B]/[B,B]/[B,B]/[B,B]/ [B,B]<[=B,=B]- [B,B]2 | %105
!ff! z [ege']/[ege']/ [ege']/[ege']/[ege']/[ege']/ [ege']<[dd']- [dd']2 | %106
 z/ [ege']/[ege']/[ege']/ [ege']/[ege']/[ege']/[ege']/ [ege']<[cc']- [cc']2 | %107
 z [cec']/[cec']/ [cec']/[cec']/[cec']/[cec']/ [cec']<[Bdb]- [Bdb]2 | %108
 z/ [Bb]/[Bb]/[Bb]/ [Bb]/[Bb]/[Bb]/[Bb]/!<(! [Bb]<[=B=b]- [Bb]2!<)! | %109
!fff! [EGce][egc'e']/[egc'e']/ [egc'e']/[egc'e']/[egc'e']/[egc'e']/ !>![egc'e']/!>![dgd']/[dgd']/[egd']/ [dgd']/[dgd']/[egd']/[dgd']/ | %110
 [dgd']/[cegc']/[cegc']/[cegc']/ [cegc']/[cegc']/[cegc']/[cegc']/ [cfc']/[Bfbc']/[Bfbc']/[Bfbc']/ [Bfbc']/[Bfbc']/[Bb]/[Gg]/ | %111
 !>![Bb]/[cc']/[cec']/[cfc']/ [cc']/[cc']/[cec']/[cfc']/ !>![cc']/[Bb]/[Beb]/[Bfb]/ [Bb]/[Bb]/[Beb]/[Bfb]/ | %112
 [Bgb]/[Gg]/[Gg]/[Bgb]/ [Gg]/[Gg]/[Gg]/[Bgb]/ [B,B]/!<(![=B,=B]/[Dd]/[Gg]/ [Gg]/[B=b]/[Bb]/[dd']/!<)! || %113
[K:bass]"^H""^Bran and the Night King\nfinally meet\n" z4 (3C,E,E, C,2 | C,4 (3C,E,E, C,2 | %115
 C,4 (3C,E,E, C,2 | C,4 (3C,E,E, D,2 | %117
[K:treble]!ff! !>![CGc]2 !>![CGc]2 (3[CG-c][EG-e][EGe] !>![CGc]2 | %118
 !>![CGc]2 !>![CGc]2 (3!>![CG-c][EG-e][EGe] !>![CGc]2 | %119
 !>![CAc]2 !>![CAc]2 (3!>![CA-c][EA-e][EAe] !>![CAc]2 | %120
 !>![CGBc]2 !>![CGBc]2 (3!>![CBc][Ee][Ee] !>![Dd]2 | %121
"^The Night King reaches\nfor his weapon\n" (6:4:6!>![CEGc]/"_cresc."[egc'e']/[egc'e']/[egc'e']/[egc'e']/[egc'e']/ (6:4:6!>![egc'e']/[dgc'd']/[dgc'd']/[dgc'd']/[dgc'd']/[dgc'd']/ (6:4:6!>![dgc'd']/[egc'e']/[egc'e']/[egc'e']/[egc'e']/[egc'e']/ (6:4:6!>![egc'e']/[cgc']/[cgc']/[cgc']/[cgc']/[cgc']/ | %122
 (6:4:6!>![cgc']/[egc'e']/[egc'e']/[egc'e']/[egc'e']/[egc'e']/ (6:4:6!>![egc'e']/[dgd']/[dgd']/[dgc'd']/[dgc'd']/[dgc'd']/ (6:4:6!>![dgc'd']/[egc'e']/[egc'e']/[egc'e']/[egc'e']/[egc'e']/ (6:4:6!>![egc'e']/[cgc']/[cgc']/[cgc']/[cgc']/[cgc']/ | %123
 (6:4:6!>![cgc']/[fac'f']/[fac'f']/[fac'f']/[fac'f']/[fac'f']/ (6:4:6!>![fac'f']/[eac'e']/[eac'e']/[eac'e']/[eac'e']/[eac'e']/ (6:4:6!>![eac'e']/[fac'f']/[fac'f']/[fac'f']/[fac'f']/[fac'f']/ (6:4:6!>![fac'f']/[eac'e']/[eac'e']/[eac'e']/[eac'e']/[eac'e']/ | %124
!fff! (6:4:6[gc'g']/[ac'a']/[gc'g']/[ac'a']/[gc'g']/[ac'a']/ (6:4:6[gc'g']/[ac'a']/[gc'g']/[ac'a']/[gc'g']/[ac'a']/ (6:4:6[gc'g']/[ac'a']/[gc'g']/[ac'a']/[gc'g']/[ac'a']/ .[gc'g']2 |] %125
V:2
 z8 | z8 | z8 | z8 | [A,A]8 | E8 | D8 | A,8 |"_Sost""_(Sostenuto optional)"!ped! [A,A]8 | E8 | %10
 D6 z2!ped-up! | E,8 || A,4 A,E- E2 | A,4 A,4 | A,E- E2 A,4 | E,4 E,[B,E]- [B,E]2 | E,4 C,4 | %17
 C,[A,C]- [A,C]2 C,4 | A,,4 A,,[E,A,]- [E,A,]2 |!ped! [A,,A,]E- E2!ped-up!!ped! A,E- E2!ped-up! | %20
"_Sim." [A,,A,]E- E2 A,E- E2 | E,,B,- B,2 E,B,- B,2 | [E,,E,]B,- B,2 [C,,C,]A,- A,2 | %23
 C,A,- A,2 [C,,C,]A,- A,2 | _B,,D,- D,2 B,,D,- D,2 |[M:2/4] _B,,D,- D,2 || %26
[M:4/4] A,,4 (3:2:2A,,2 A,,- A,,2 | _A,,4 A,,4 | _G,,4 G,,2 G,,2 | _A,,4 A,,4 | %30
 A,,<_A,, =A,,2 A,,2 A,,2 | _A,,2 ^F,2 A,,4 | _G,,4 G,,4 | _A,,4 A,,2 A,,2 | [A,,,A,,]8 | %35
 [E,,E,]8 | [C,,C,]8 | [B,,,B,,]6 [B,,,B,,][B,,,B,,] | !arpeggio![A,,,A,,A,]8 | %39
 !arpeggio![E,,E,A,]8 | !arpeggio![C,,C,A,]8 | !arpeggio![_B,,,_B,,A,]8 | %42
 [A,,,A,,]E,/A,/ A,,E,/A,/ A,,E,/A,/ A,,E,/A,/ | %43
 [E,,,E,,]B,,/E,/ E,,B,,/E,/ E,,B,,/E,/ E,,B,,/E,/ | %44
 [C,,,C,,]G,,/C,/ C,,G,,/C,/ C,,G,,/C,/ C,,G,,/C,/ | %45
 [_B,,,_B,,]F,/_B,/ B,,F,/B,/ B,,F,/B,/ B,,F,/B,/ | [A,,,A,,]8- | [A,,,A,,]8 || %48
[M:3/4][K:treble] [A,A]6 | [_B,_B]6 | [G,G]6 | [A,A]6 | [_B,_B]6 | [F,F]6 | [D,D]6 | %55
[M:4/4][K:bass] [^C,^C]8 || [D,,D,]8 | F4 G4 |[K:bass] [D,,D,]8 |[K:treble] F4 G4 | %60
[K:bass] [D,,D,]8 | [D,,D,]8 | [D,,D,]8 | [D,,D,]8 | [D,,D,]8 | [D,,,D,,]8 ||[K:Eb] C,,4 C,,4 | %67
 =B,,,4 B,,,4 | =A,,,4 A,,,2 A,,,2 | =B,,,4 B,,,2 B,,,2 || %70
 z/ C,/F,/G,/ C/G,/F,/C,/ z/ C,/F,/G,/ C/G,/F,/C,/ | %71
 z/ C,/F,/G,/ C/G,/F,/C,/ z/ C,/F,/G,/ C/G,/F,/C,/ | [=A,,,=A,,]2 A,,2 [A,,,A,,]2 [A,,,A,,]2 | %73
 [=B,,,=B,,]8 | [C,,,C,,]4 [G,,,G,,]4 |"_Sost."!ped! [A,,,A,,]4!ped! [B,,,B,,]4!ped-up! | %76
 [C,,C,]4 [G,,,G,,]4 |"_Sim." [A,,,A,,]4 [B,,,B,,]4 |[M:6/4] [=B,,,=B,,]12 |[M:4/4] [C,,,C,,]8- | %80
 [C,,,C,,]8 || [C,,,C,,]8- | [C,,,C,,]8 | [C,,,C,,]8- | [C,,,C,,]4 =B,,,4 | [C,,,C,,]4 [D,,,D,,]4 | %86
 [E,,,E,,]4 [F,,,F,,]4 | [G,,,G,,]4 [A,,,A,,]4 | [G,,,G,,]4 [F,,,F,,]4 | [D,,,D,,]4 [B,,,B,,]4 | %90
 [G,,,G,,]4 [E,,,E,,]4 | [C,,,C,,]4 [D,,,D,,]4- | [D,,,D,,]4 [G,,,G,,]4 || [C,,,C,,]4 [A,,,A,,]4 | %94
 [E,,,E,,]4 [F,,,F,,]4 | [_D,,,_D,,]4 [E,,,E,,]4 | [C,,,C,,]4 [D,,,D,,]4 | [C,,C,]4 [B,,,B,,]4 | %98
 [A,,,A,,]4 [F,,,F,,]4 | [_D,,,_D,,]4 [E,,,E,,]4 | [C,,,C,,]4 [=B,,,=B,,]4 || %101
 [C,,,C,,]4 [A,,,A,,]4 | [E,,,E,,]4 [F,,,F,,]4 | [_D,,,_D,,]4 [E,,,E,,]4 | [C,,,C,,]4 [G,,,G,,]4 | %105
 [C,,,C,,]4 [B,,,B,,]4 | [A,,,A,,]4 [F,,,F,,]4 | [_D,,,_D,,]4 [E,,,E,,]4 | %108
 [C,,,C,,]4 z/ [=B,,,,=B,,,]3/2- [B,,,,B,,,]2 | [C,,,C,,]4 [B,,,B,,]4 | [A,,,A,,]4 [F,,,F,,]4 | %111
 [_D,,,_D,,]4 [E,,,E,,]4 |!ped! [C,,,C,,]4!ped-up! [=B,,,,=B,,,]4 || [C,,,C,,]8 | [=B,,,,=B,,,]8 | %115
 [=A,,,,=A,,,]8 | [=B,,,,=B,,,]8 | [C,,,C,,]8 | [G,,,G,,]8 | [F,,,F,,]8 | [G,,,G,,]8 | [C,,,C,,]8 | %122
 [G,,,G,,]8 | [F,,,F,,]8 | [C,,,C,,]8 |] %125
V:3
 x8 | x8 | x8 | x8 | x8 | x8 | x8 | x8 | x8 | x8 | x8 | x8 || x8 | x8 | x8 | x8 | x8 | x8 | x8 | %19
 x8 | x8 | x8 | x8 | x8 | x8 |[M:2/4] x4 ||[M:4/4] A,,,8 | _A,,,8 | _G,,,8 | _A,,,8 | A,,,8 | %31
 _A,,,8 | _G,,,8 | _A,,,4 A,,,4 | A,2 A,2 A,2 A,2 | A,2 A,2 A,2 A,2 | A,2 A,2 A,2 A,2 | %37
 A,2 A,2 A,2 A,2 | x2 A,,2 A,,2 A,,2 | x2 E,,2 E,,2 E,,2 | x2 C,,2 C,,2 C,,2 | x2 _B,,2 B,,2 B,,2 | %42
 x8 | x8 | x8 | x8 | x8 | x8 ||[M:3/4][K:treble] x6 | x6 | x6 | x6 | x6 | x6 | x6 | %55
[M:4/4][K:bass] x8 || x8 | x8 |[K:bass] x8 |[K:treble] x8 |[K:bass] x8 | x8 | x8 | x8 | x8 | x8 || %66
[K:Eb] x8 | x8 | x8 | x8 || [C,,C,]4 C,,4 | [=B,,,=B,,]4 B,,,4 | %72
 C,F,/G,/ C/G,/F,/C,/ C,F,/G,/ C/G,/F,/C,/ | C,F,/G,/ C/G,/F,/C,/ C,F,/G,/ C/G,/F,/C,/ | %74
 C,G,/C/ C,G,/C/ G,,D,/G,/ G,,D,/G,/ | A,,[B,,E,]/A,/ [A,,C,]E,/A,/ B,,F,/B,/ B,,F,/B,/ | %76
 C,G,/C/ C,G,/C/ G,,D,/G,/ G,,D,/G,/ | A,,[B,,E,]/A,/ [A,,C,]E,/A,/ B,,F,/B,/ B,,F,/B,/ | %78
[M:6/4] z12 |[M:4/4] C,2 C,2 C,2 C,2 | C,2 C,2 C,2 C,2 || z C/G/ C,C/G/ C,C/G/ C,C/G/ | %82
 C,C/G/ C,C/G/ C,C/G/ C,C/G/ | z C/G/ C,C/G/ C,C/G/ C,C/G/ | C,C/G/ C,C/G/ z =B,/G/ =B,,B,/G/ | %85
 C,G,/C/ C,G,/C/ D,G,/D/ D,G,/D/ | E,G,/E/ E,G,/E/ F,A,/F/ F,A,/F/ | G,C/G/ G,C/G/ A,C/E/ A,C/E/ | %88
 G,C/G/ G,C/G/ F,C/F/ F,C/F/ | D,A,/D/ D,A,/D/ B,,G,/D/ B,,G,/D/ | %90
 G,,G,/D/ G,,G,/D/ E,,E,/G,/ E,,E,/G,/ | C,,G,/C/ C,G,/C/ D,,^F,/D/ D,F,/D/ | %92
 D,^F,/D/ D,F,/D/ G,,D,/G,/ G,,D/G/ || C,,C,/G,/ C,,C,/G,/ A,,G,/A,/ A,,G,/A,/ | %94
 E,,F,/G,/ E,,F,/G,/ F,,G,/=A,/ F,,G,/A,/ | _D,,A,,/F,/ D,,A,,/F,/ E,,B,,/E,/ E,,B,,/E,/ | %96
 C,,G,/B,/ C,,G,/B,/ D,,D,/G,/ D,/G,/=B,/D/ | %97
 C,/C,/G,/B,/ C,,/C,,/C,/G,/ B,,/B,,/G,/D/ B,,/B,,/G,/E/ | %98
 A,,/A,,/E,/B,/ A,,/E,/B,/C/ F,,/F,,/C,/=A,/ F,,/F,,/C,/A,/ | %99
 _D,,/A,,/E,/F,/ D,,/A,,/E,/F,/ E,,/B,,/E,/E,/ E,,/B,,/E,/E,/4G,,/4 | %100
 C,,/G,,/C,/C,/ C,,/G,,/C,/C,/ =B,,/B,,/G,/G,/ [G,,,G,,]/[G,,,G,,]/[=B,,,B,,]/[B,,,B,,]/ || %101
 C,,/G,,/C,/E,/ C,,/G,,/C,/E,/ A,,/C,/E,/D,/ A,,/C,/E,/A,/ | %102
 E,,/B,,/F,/G,/ E,,/B,,/F,/G,/ F,,/C,/F,/G,/ F,,/C,/F,/G,/ | %103
 _D,,/A,,/E,/F,/ D,,/A,,/E,/F,/ E,,/B,,/E,/F,/ E,,/B,,/E,/F,/ | %104
 C,,/G,,/E,/E,/ C,,/G,,/E,/E,/ G,,/=B,,/D,/D,/ G,,/B,,/D,/G,/ | %105
 [C,C]/E,/G,/C/ C,/E,/G,/C/ B,,/F,/G,/D/ B,,/F,/G,/D/ | %106
 A,,/C,/B,/C/ A,,/C,/B,/C/ F,,/C,/F,/=A,/ [F,,F,]/C,/[F,,F,]/C,/ | %107
 _D,,/A,,/E,/F,/ D,,/A,,/E,/F,/ E,,/B,,/E,/F,/ E,,/B,,/E,/F,/ | %108
 [C,,,C,,]/[G,,G,]/[G,G]/[B,B]/ [C,,,C,,]/[G,,G,]/[G,G]/[B,B]/ z/ [=B,,,,=B,,,]/[B,,,=B,,]/[B,,,B,,]/ [G,,,G,,]/[G,,,G,,]/[B,,,B,,]/[B,,,B,,]/ | %109
 C,,/G,/[C,C]/E/ C,/G,/[C,C]/E/ B,,/G,/[G,D]/E/ B,,/G,/[G,E]/D/ | %110
 A,,/E,/B,/C/ A,,/E,/B,/C/ F,,/C,/F,/B,/ F,,/C,/F,/G,/ | %111
 _D,,/A,,/[E,E]/[F,F]/ D,,/A,,/[E,E]/[F,F]/ E,,/[B,,B,]/[E,E]/[F,F]/ [E,,E,]/[B,,B,]/[E,E]/[F,F]/ | %112
 [C,,,C,,]/G,,/G,/B,/ C,,/G,,/G,/B,/ [=B,,,,=B,,,][B,,,,B,,,]/[B,,,,B,,,]/ [G,,,G,,]/[B,,,=B,,]/[B,,,B,,]/[D,,D,]/ || %113
 x8 | x8 | x8 | x8 | %117
 (6:4:6C,,/F,,/G,,/C,/C,,/F,,/ (6:4:6G,,/C,/C,,/F,,/G,,/C,/ (6:4:6C,,/F,,/G,,/C,/C,,/F,,/ (6:4:6G,,/C,/C,,/F,,/G,,/C,/ | %118
 (6:4:6G,,/C,/D,/G,/G,,/C,/ (6:4:6D,/G,/G,,/C,/D,/G,/ (6:4:6G,,/C,/D,/G,/G,,/C,/ (6:4:6D,/G,/G,,/C,/D,/G,/ | %119
 (6:4:6F,,/=B,,/C,/F,/F,,/B,,/ (6:4:6C,/F,/F,,/B,,/C,/F,/ (6:4:6F,,/B,,/C,/F,/F,,/B,,/ (6:4:6C,/F,/F,,/B,,/C,/F,/ | %120
 (6:4:6G,,/C,/D,/G,/G,,/C,/ (6:4:6D,/G,/G,,/C,/D,/G,/ (6:4:6G,,/C,/D,/G,/G,,/C,/ (6:4:6D,/G,/G,,/C,/D,/G,/ | %121
 (6:4:6C,,/F,,/G,,/C,/C,/F,/ (6:4:6G,/C/C,/F,/G,/C/ (6:4:6C,/F,/G,/C/C,/F,/ (6:4:6G,/C/C/F/G/c/ | %122
 (6:4:6G,,/C,/D,/G,/G,,/C,/ (6:4:6D,/G,/G,,/C,/D,/G,/ (6:4:6G,,/C,/D,/G,/G,,/C,/ (6:4:6D,/G,/G,/C/D/G/ | %123
 (6:4:6F,,/C,/D,/A,/A,,/C,/ (6:4:6D,/A,/A,,/C,/D,/A,/ (6:4:6A,,/C,/D,/A,/A,,/C,/ (6:4:6D,/A,/A,/C/D/A/ | %124
 (6:4:6C,,/F,,/G,,/C,/C,/F,/ (6:4:6G,/C/C/F/G/c/ (6:4:6[C,C]/[F,F]/[G,G]/[Cc]/[C,C]/[F,F]/ .[G,G]2 |] %125
V:4
 x8 | x8 | x8 | x8 | x8 | x8 | x8 | x8 | x8 | x8 | x8 | x8 || x8 | x8 | x8 | x8 | x8 | x8 | x8 | %19
 x8 | x8 | x8 | x8 | x8 | x8 |[M:2/4] x4 ||[M:4/4] x8 | x8 | x8 | x8 | x8 | x8 | x8 | x8 | x8 | %35
 x8 | x8 | x8 | [eae']8 | (3A,CC B,A,/G,/ (3A,CC B,2 | [cgc']8 | (3A,CC _B,A,/G,/ (3A,CC B,2 | x8 | %43
 x8 | x8 | x8 | x8 | x8 ||[M:3/4] x6 | x6 | x6 | x6 | x6 | x6 | x6 |[M:4/4] x8 || A,8 | x8 | A,8 | %59
 x8 | [F,D-F-]4 [G,DF]4 | [F,D-G-]4 [G,DG]4 | [F,B,-F-]4 [G,B,F]4 | [F,C-G-]4 [G,CG]4 | %64
 [_E,_E]4 [F,F]4 | [D,D]8 ||[K:Eb][K:bass] x8 | x8 | x8 | x8 ||[K:treble] x8 | x8 | x8 | x8 | x8 | %75
 x8 | x8 | x8 |[M:6/4] c4[I:staff +1] [G,G]4 [A,A]2 [B,B]2 | %79
[M:4/4][I:staff -1] z C/G/ z C/G/ z C/G/ z C/G/ | z C/G/ z C/G/ z C/G/ z C/G/ || x8 | x8 | %83
[K:bass] x8 | x4 D,4 |[K:treble] x8 | x8 | x8 | x8 | x8 | x8 | x8 | x8 || x8 | x8 | x8 | x8 | x8 | %98
 x8 | x8 | x8 || x8 | x8 | x8 | x8 | x6 z/ F/[Ee]/[Dd]/ | z4 z3/2 C/ C/C/[B,C]/[G,C]/ | %107
 [B,C]/C/ z z2 z B,/B,/ B,/B,/C/B,/ | B,/G,/G/B/ z2 z [G,G]/[G,G]/ [G,G]/[=B,=B]/[B,B]/[Dd]/ | x8 | %110
 x8 | x8 | x8 ||[K:bass] x8 | x8 | x8 | x8 |[K:treble] x8 | x8 | x8 | x8 | x8 | x8 | x8 | x8 |] %125

